!!!OTL: Als Sankt Justil blind geboren war,CNR[und ihr Vater ein Pfalzgraf war
!!!ARE: Europa, Mitteleuropa, Lothringen, Hambach
!!!SCT: D0066
!!!YEM: Copyright 1995, estate of Helmut Schaffrath.
**kern
*ICvox
*Ivox
*M3/8
*k[f#]
*G:
{4dd
8a
=1
4a
8dd
=2
4ffn
8gg
=3
4ffn
8ee
=4
4.dd}
=5
{4dd
8dd
=6
8.cc
16cc
8dd
=7
4b-
8a
=8
[4.g
=9
4g]}
{8g
=10
4b-
8b-
=11
8dd
8cc
8cc
=12
4.dd
=13
8dd
8cc
8b-
=14
4.a
=15
4.g}
==
!!!AGN: Legenden - Lied
!!!ONB: ESAC (Essen Associative Code) Database: DVA
!!!AMT: simple triple
!!!AIN: vox
!!!EED: Helmut Schaffrath
!!!EEV: 1.0
*-
